X:1
T:Puer natus in Bethlehem
T:Puer natus in Bethlehem
T:Opus 118, nr. 6
T:Josef Gabriel Rheinberger (1839-1901)
C:Josef Gabriel Rheinberger (1839-1901)
%%score [ 1 2 ] { ( 3 6 7 8 ) | ( 4 5 ) }
L:1/8
Q:1/2=69
M:2/2
K:G
V:1 treble nm="Soprano"
V:2 treble nm="Alto"
V:3 treble nm="Pipe Organ"
V:6 treble 
V:7 treble 
V:8 treble 
V:4 bass 
V:5 bass 
V:1
!f!"^Con moto" B4 E4 | A4 G2 F2 | G6 c2 | c8 | (e4 c2) e2 | A4 A2 A2 | d4 (B2 d2) | G6 z2 | z8 | %9
w: Pu- er|na- tus in|Beth- le-|hem,|un- * de|gau- det Je-|ru- sa- *|lem,||
 z4 z2 !>!A2 | !>!d4 c4 | B3 F G2 A2 | G6 B2 | c2 B2 A2 G2 | G6 F2 | F4 z4 | B4 E2 E2 | %17
w: hic|ja- cet|in prae- se- pi-|o qui|reg- nat si- ne|ter- mi-|no.|Re- ges de|
 A4 (G2 F2) | G6 c2 | c8 | F4 F2 F2 | G4 G4 | A6 A2 | ^F6 z2 |!p! B4 B2 B2 |!<(! ^c4 c4 | d6 d2 | %27
w: Sa- ba _|ve- ni-|unt|au- rem thus|myr- rham|of- fe-|runt|Si- ne ser-|pen- tis|vul- ne-|
 B4!<)! z2!f! B2 | e4 A4- | A4 d4- | d4 G4- | G4 c2 B2 | A6 z2 | z2!mf! B2 A2 G2 | A4 D4 | %35
w: re, de|nos- tro|_ ve-|* nit|_ san- gui-|ne,|in car- ne|no- bis|
 z2 (d2 e2) B2 | c4 z4 | z2 B2 A2 G2 | F2 d2 e2 ^c2 |!<(! d6!<)!!ff! d2 | g4 d4 | B4 (c2 d2) | %42
w: si- * mi-|lis,|pec- ca- to|sed dis- si- mi-|lis ut|red- der|et nos _|
 (e2 d2) (c2 B2) | A4 z4 | g4 f2 f2 | e4 ^d4 | (e2 =d2 c2 B2 | A4) ^A4 | B6 z2 | z4 z2!f! B2 | %50
w: ho- * mi- *|nes,|De- o et|si- bi-|si- * * *|* mi-|les.|In|
 B4 E4 | A4 (G2 F2) | G6 c2 | c4 z2 c2 | c4 F4 | (B4 A2) ^G2 | A6 e2 | e6 z2 |!p! e4 c2 e2 | %59
w: hoc na-|ta- li _|gau- di-|o, in|hoc na-|ta- * li|gau- di-|o:|be- ne- di-|
 A4 A4 | (d4 B2) d2 | G8 | c4 A2 c2 | F4 B4 | A4 G4 | F4 z2!mf! F2 ||[K:E] (G2 B2) (A2 c2) | %67
w: ca- mus|Do- * mi-|no,|Be- ne- di-|ca- mus|Do- mi-|no, lau-|de- * tur _|
!<(! B6 e2!<)! | d4!>(! c4 | B6!>)!!f! B2 | c4 f4 | f4 B4 | B4 e4 | e4 A4 | (A2 c2) (B2 A2) | %75
w: sanc- ta|tri- ni-|tas, lau-|de- tur|sanc- ta|tri- ni-|tas, lau-|de- * tur _|
 (G2 e2) (d2 c2) | (B8 | ^A6) B2 | B6 z2 |!<(! B4 B2 B2 | B4 A4!<)! | =d6 d2 | c6 z2 | %83
w: sanc- * ta _|tri-|* ni-|tas,|De- o di-|ca- mus|gra- ti-|as,|
!f! ^d4 d2 d2 | e4 G4 | (G8 | F6) E2 | E8- | E4 z4 | z8 | z8 | !fermata!z8 |] %92
w: De- o di-|ca- mus|gra-|* ti-|as.|_||||
V:2
!f! B4 E4 | A4 G2 F2 | G6 c2 | c8 | (c4 A2) c2 | F4 F2 F2 | B4 (G2 B2) | E6 !>!G2 | !>!c4 B4 | %9
w: Pu- er|na- tus in|Beth- le-|hem|un- * de|gau- det Je-|ru- sa- *|lem, hic|ja- cet|
 A3 E F2 G2 | F8 | z4 z2 B2 | B4 (G2 E2) | (A2 G2) (F2 E2) | E6 ^D2 | ^D4 z4 | B4 E2 E2 | %17
w: in prae- se- pi-|o,|qui|reg- nat _|si- * ne _|ter- mi-|no.|Re- ges de|
 A4 (G2 F2) | G6 c2 | c8 | F4 E2 ^D2 | E4 E4 | =F6 F2 | ^D6 z2 |!p! B4 B2 B2 |!<(! B4 ^A4 | %26
w: Sa- ba _|ve- ni-|unt|au- rem thus|myr- rham|of- fe-|runt|Si- ne ser-|pen- tis|
 (B2 F2 B2) =A2 | ^G4!<)! z2!f! G2 | (=c2 B2) (A2 G2) | (F2 E2 D2) c2 | (B2 A2) (G2 F2) | E6 z2 | %32
w: vul- * * ne-|re, de|nos- * tro _|ve- * * nit|san- * gui- *|ne,|
 z2!mf! A2 G2 F2 | G4 D4 | z2 (c2 d2) A2 | B6 z2 | z2 A2 G2 F2 | G4 A2 B2 | A4 G4 | %39
w: in car- ne|no- bis|si- * mi-|lis,|pec- ca- to|sed dis- *|si- mi-|
!<(! (F4 G2)!<)!!ff! A2 | B4 A4 | G6 =F2 | (E2 B2) (A2 G2) | ^F4 z4 | B4 A2 A2 | G4 F4 | (E8- | %47
w: lis _ ut|red- der|et nos|ho- * mi- *|nes,|De- o et|si- bi|si-|
 E2 G2) (F2 E2) | ^D6 z2 | z4 z2!f! B2 | B4 E4 | A4 (G2 F2) | G6 c2 | c4 z2 c2 | c4 F4 | %55
w: * * mi- *|les.|In|hoc na-|ta- li _|gau- di-|o, in|hoc na-|
 (B4 A2) ^G2 | A6 E2 | E6 z2 |!p! c4 A2 c2 | F4 F4 | (B4 G2) B2 | E8 | A4 F2 A2 | ^D6 D2 | E4 E4 | %65
w: ta- * li|gau- di-|o:|be- ne- di-|ca- mus|Do- * mi-|no,|Be- ne- di-|ca- mus|Do- mi-|
 ^D4 z2!mf! D2 ||[K:E] E4 E4 | E6!<(! E2 | (E2 B4)!<)!!>(! A2 | G6!>)!!f! G2 | (A2 G2) (F2 E2) | %71
w: no, lau-|de- tur|sanc- ta|tri- * ni-|tas, lau-|de- * tur _|
 (D2 c2) (B2 A2) | (G2 F2) (E2 D2) | C4 A4 | A4 (G2 F2) | (E2 G2) (F2 E2) | (D8 | E6) D2 | D6 z2 | %79
w: sanc- * ta _|tri- * ni- *|tas, lau-|de- tur _|sanc- * ta _|tri-|* ni-|tas,|
!<(! =D4 D2 D2 | (C2 E4) A2!<)! | (A2 G2) (A2 B2) | B6 z2 |!f! A4 G2 F2 | E4 E4 | (E8 | D6) E2 | %87
w: De- o di-|ca- * mus|gra- * ti- *|as,|De- o di-|ca- mus|gra-|* ti-|
 E8- | E4 z4 | z8 | z8 | !fermata!z8 |] %92
w: as.|_||||
V:3
!mf! (B4 E4 | A4 G2 F2 | G6 c2 | c8) | ([ce]4 [Ac]2 [ce]2 | [FA]8) | ([Bd]4 [GB]2 [Bd]2 | G8) | %8
 c4 B4 | A8 | d4 c4 | B8- | [GB]6 ([GB]2 | [Ac]2 [GB]2 [FA]2 [EG]2 | [EG]6) [^DF]2 | %15
 ([^DF]4 [EG]2 [FA]2) |!f! [GB]4 E4 | [EA]4 [DG]2 [C-F]2 | C2 ^A,2 B,2 E2- | E2 B2 A2 G2 | F8 | %21
 [EG]8 | A8 | ^F4 B4- |!p! B4 B4- | B4 ^A4 | d8 | [^GB]8 | e4 A4- | A4 d4- | d4 G4- | G4 c2 B2 | %32
 A4 G2 F2 | z2 B2 A2 G2- | G4 F4 | B2 d2 e2 B2 | c2 A2 G2 F2 | G2 B2 A2 B2 | A2 d2 e2 ^c2 | d8 | %40
 [Bg]4 [Ad]4 | B4 c2 d2 | [Ee]2 [Bd]2 [Ac]2 [GB]2 | [^FA]4 [Dd]4 | [Bg]4 [Af]4 | [Ge]4 [F^d]4 | %46
 e2 =d2 c2 B2 | A4 ^A4 | B2 F2 B2 =A2 | G2 ^D2 G2 F2 | [EB]4 E4 | A4 G2 F2 | G6 c2 | c8 | %54
 [Fc]4 F4 | B4 A2 ^G2 | A6 e2- | e2 B2 c2 d2 |!p! [ce]4 [Ac]4 | [FA]8 | [Bd]4 [GB]4 | [EG]8 | %62
 [Ac]4 [FA]4 | F4 B4 | A4 G4 | [^DF]8 ||[K:E]!f! G2 B2 A2 c2 | B6 e2 | d4 c4 | [GB]6 [GB]2 | %70
 c4 f4- | f4 B4- | B4 e4- | e4 A4- | A2 ([Ac]2 [GB]2 [FA]2 | [EG]2 [Ge]2 [Fd]2 [Ec]2) | B8 | %77
 (^A2 e2 A2 B2) | B8- | B8 | B4 A2 c2 | =d8 | c8 |!f! ^d8 | e4 G4- | G8 | [DF]6 E2 | E2 G2 B4- | %88
 B2 E2 A4- | A2 [CA]2 [B,G]2 [A,F]2 | [G,E]4 [DF]4 | !fermata![EG]8 |] %92
V:4
 z8 | z8 | z8 | z8 | z2 (C2 E2 A,2) | z2 (C2 D2 A,2) | z2 (B,2 D2 E,2) | z2 (C2 G,2 E,2) | %8
 z2 A,4 G,2- | G,2 A,G, F,2 E,2 | D,2 F,2 A,2 D2 | z2 B,A, G,2 F,2 | z2 G,2 B,2 E2 | E,6 C2 | %14
 B,2 CB, ^A,4 | B,2 =A,2 G,2 F,2 |"_Man." E,2 F,2 G,2 E,2 | z2 C2 B,2 A,2 | [E,G,]8 | %19
 A,2 G,2 F,2 E,2 | ^D,2 F,2 B,2 A,2 | G,4 A,2 B,2 |"_ped." C2 =F,2 A,2 C2 | B,2 A,2 G,2 ^F,2 | %24
"_man" G,8 | F,8 | D6 =F2 | E2 B,2 E2 D2 | [A,,C]8 | A,4 F,4 | G,2 A,2 B,4 | C2 B,2 A,2 G,2 | %32
 F,2 C2 B,2 A,2 | B,8 | C4 A,4 | G,4 ^G,4 | A,2 C2 B,2 A,2 | G,4 F,2 G,2 | A,4 ^C2 E2 | A,4 D,4- | %40
 D,2 G,4 F,2 | z2 G,2 A,2 B,2 | C2 ^G,2 A,4 | D,8 | z2 D4 C2- | C2 B,4 A,2 | G,6 ^G,2 | A,4 E,4 | %48
 F,6 F,2 | B,2 F,2 B,2 A,2 | G,4 z4 | z8 |"_Man." z2 E2 C2 B,2 | A,8- | A,2 F,2 B,2 A,2- | %55
 A,2 ^G,2 A,2 B,2 | z2 C2 B,2 A,2 | ^G,8 | z2 (E,2 A,2 C2) | z2 (C2 D2 A,2) | z2 (B,2 D2 G,2) | %61
 z2 (C2 G,2 E,2) | z2 (A,2 C2 F,2) | z2 B,A, G,2 F,2 | E,2 C2 B,2 ^A,2 | B,2 F,2 ^D,2 B,,2 || %66
[K:E] E,2 G,2 F,2 A,2 | G,6 C2 | B,2 G,2 A,2 C2 | E2 B,2 G,2 E,2 | A,8- | A,4 G,2 F,2 | G,8 | %73
 A,2 G,2 F,2 E,2 | F,4 B,4- | B,8- | B,2 F,2 B,2 D2 | C6 B,2- | B,2 G,2 B,2 =A,2 | %79
 G,2 A,2 F,2 G,2 | E,2 A,2 C2 E2 | B,4 A,2 G,2 | A,2 C2 A,2 F,2 | z2 F,2 G,2 A,2 | %84
 G,2 A,2 ^A,2 C2 | B,2 G,2 B,2 E,2 | =A,2 C2 B,2 A,2 | G,8 | A,6 ^D,2 | E,8- | E,4 [A,=C]4 | %91
 !fermata![E,B,]8 |] %92
V:5
 x8 | x8 | x8 | x8 | A,,8 | D,8 | G,,8 | C,8 | A,,4 B,,4 | C,4 ^C,4 | D,8 | ^D,8 | E,8 | %13
 A,,2 B,,2 C,2 A,,2 | B,,8- | B,,4 z4 | x8 | C,4 D,2 ^D,2 | x8 | A,,8 | B,,8 | E,2 =D,2 C,2 B,,2 | %22
 A,,8 | B,,8 | x8 | x8 | B,8 | E,8 | x8 | D,8 | G,,8 | C,6 ^C,2 | D,8- | D,8 | D,8- | D,8- | D,8- | %37
 D,6 z2 | A,,8 | D,2 =C,2 B,,2 A,,2 | G,,4 D,4 | E,6 D,2 | C,6 ^C,2 | z2 =C,2 B,,2 A,,2 | %44
 G,,4 D,4 | E,4 B,,4 | C,8- | (C,8 | B,,8-) | B,,8 | E,,4 x4 | x8 | z8 | z2 G,2 F,2 E,2 | ^D,8 | %55
 =D,8 | C,8 | B,,2 D,2 C,2 B,,2 | A,,8 | D,8 | G,,8 | C,8 | F,,8 | B,,8- | B,,8- | B,,6 z2 || %66
[K:E] E,,8- | E,,8- | E,,8- | E,,4 z4 | x8 | x8 | x8 | x8 | D,8 | E,2 C,2 D,2 E,2 | F,,8 | %77
 ^^F,,6 G,,2 | G,,6 z2 | E,,8 | A,,8 | ^E,,8 | F,,8 | ^B,,8 | C,6 ^A,,2 | B,,8- | B,,8 | E,,8- | %88
 E,,8- | E,,8- | E,,8- | !fermata!E,,8 |] %92
V:6
 x8 | x8 | x8 | x8 | x8 | x8 | x8 | E8- | E8- | E4 F2 G2 | F8- | F4 G2 A2 | x8 | x8 | x8 | x8 | %16
 x8 | x8 | G6 c2- | c8 | F4 E2 ^D2 | x8 | =F6 E2 | ^D8 | E2 ^D2 E2 ^E2 | [^CF]2 C2 F2 E2 | %26
 B2 F2 B2 A2 | x8 | =c2 B2 A2 G2 | F2 E2 D2 c2 | B2 A2 G2 F2 | E8 | x8 | G4 D4 | x8 | G4 E4 | x8 | %37
 B,4 D4 | F4 G4 | F4 G2!f! A2 | x8 | G6 =F2 | x8 | x8 | x8 | x8 | E8- | E2 G2 F2 E2 | ^D6 z2 | x8 | %50
 x8 | x8 | z2 E6- | E4 A2 G2 | x8 | =F8 | E8- | E8 | x8 | x8 | x8 | x8 | x8 | ^D8 | E8 | x8 || %66
[K:E] E8 | x8 | z2 B4 A2 | x8 | A2 G2 F2 E2 | D8- | D2 F2 E2 D2 | C8 | x8 | x8 | D6 F2 | E6 D2- | %78
 D8 | =D8 | C4 A4 | A2 G2 A2 B2 | A8- | A4 G2 F2 | E8- | E8 | x8 | E6 =D2 | C8- | C2 x6 | x8 | %91
 x8 |] %92
V:7
 x8 | x8 | x8 | x8 | x8 | x8 | x8 | x8 | x8 | x8 | x8 | x8 | x8 | x8 | x8 | x8 | x8 | x8 | x8 | %19
 x8 | x8 | x8 | x8 | x8 | x8 | ^c8 | x8 | x8 | x8 | x8 | x8 | x8 | x8 | x8 | A2 c2 d2 A2 | x8 | %36
 x8 | x8 | x8 | x8 | x8 | x8 | x8 | x8 | x8 | x8 | x8 | x8 | x8 | x8 | x8 | x8 | x8 | x8 | x8 | %55
 x8 | x8 | x8 | x8 | x8 | x8 | x8 | x8 | x8 | x8 | x8 ||[K:E] x8 | x8 | x8 | x8 | x8 | x8 | x8 | %73
 x8 | x8 | x8 | x8 | x8 | x8 | x8 | x8 | x8 | x8 | x8 | x8 | x8 | x8 | x8 | x8 | x8 | x8 | x8 |] %92
V:8
 x8 | x8 | x8 | x8 | x8 | x8 | x8 | x8 | x8 | x8 | x8 | x8 | x8 | x8 | x8 | x8 | x8 | x8 | x8 | %19
 x8 | x8 | x8 | x8 | x8 | x8 | x8 | x8 | x8 | x8 | x8 | x8 | x8 | x8 | x8 | x8 | x8 | x8 | x8 | %38
 x8 | x8 | x8 | x8 | x8 | x8 | x8 | x8 | x8 | x8 | x8 | x8 | x8 | x8 | x8 | x8 | x8 | x8 | x8 | %57
 x8 | x8 | x8 | x8 | x8 | x8 | x8 | x8 | x8 ||[K:E] x8 | x8 | x8 | x8 | x8 | z2 c2 B2 A2 | G8 | %73
 x8 | x8 | x8 | x8 | x8 | x8 | x8 | x8 | x8 | x8 | x8 | x8 | x8 | x8 | x8 | x8 | x8 | x8 | x8 |] %92

